svg/fluentui-system-icons/ic_fluent_code_block_20_regular.svg

<svg width="20" height="20" viewBox="0 0 20 20" fill="none" xmlns="http://www.w3.org/2000/svg">
<path d="M6 3C4.34315 3 3 4.34315 3 6V14C3 15.6569 4.34315 17 6 17H14C15.6569 17 17 15.6569 17 14V6C17 4.34315 15.6569 3 14 3H6ZM4 6C4 4.89543 4.89543 4 6 4H14C15.1046 4 16 4.89543 16 6V14C16 15.1046 15.1046 16 14 16H6C4.89543 16 4 15.1046 4 14V6ZM8.85355 7.85355C9.04882 7.65829 9.04882 7.34171 8.85355 7.14645C8.65829 6.95118 8.34171 6.95118 8.14645 7.14645L5.64645 9.64645C5.45118 9.84171 5.45118 10.1583 5.64645 10.3536L8.14645 12.8536C8.34171 13.0488 8.65829 13.0488 8.85355 12.8536C9.04882 12.6583 9.04882 12.3417 8.85355 12.1464L6.70711 10L8.85355 7.85355ZM11.8536 7.14645C11.6583 6.95118 11.3417 6.95118 11.1464 7.14645C10.9512 7.34171 10.9512 7.65829 11.1464 7.85355L13.2929 10L11.1464 12.1464C10.9512 12.3417 10.9512 12.6583 11.1464 12.8536C11.3417 13.0488 11.6583 13.0488 11.8536 12.8536L14.3536 10.3536C14.5488 10.1583 14.5488 9.84171 14.3536 9.64645L11.8536 7.14645Z" fill="#212121"/>
</svg>

<svg xmlns="http://www.w3.org/2000/svg" width="20" height="20"><path d="M6 3a3 3 0 0 0-3 3v8a3 3 0 0 0 3 3h8a3 3 0 0 0 3-3V6a3 3 0 0 0-3-3H6ZM4 6a2 2 0 0 1 2-2h8a2 2 0 0 1 2 2v8a2 2 0 0 1-2 2H6a2 2 0 0 1-2-2V6Zm4.854 1.854a.5.5 0 1 0-.708-.708l-2.5 2.5a.5.5 0 0 0 0 .708l2.5 2.5a.5.5 0 0 0 .708-.708L6.707 10l2.147-2.146Zm3-.708a.5.5 0 0 0-.708.708L13.293 10l-2.147 2.146a.5.5 0 0 0 .708.708l2.5-2.5a.5.5 0 0 0 0-.708l-2.5-2.5Z"/></svg>
